assets/v1/icons/css.svg

<!-- Copyright 2000-2021 JetBrains s.r.o. Use of this source code is governed by the Apache 2.0 license that can be found in the LICENSE file. -->
<svg width="16" height="16" viewBox="0 0 16 16" fill="none" xmlns="http://www.w3.org/2000/svg">
<g id="css">
<path id="Fill 1" fill-rule="evenodd" clip-rule="evenodd" d="M7 1L3 5H7V1Z" fill="#9AA7B0" fill-opacity="0.8"/>
<path id="Fill 3" fill-rule="evenodd" clip-rule="evenodd" d="M8 1V6H3V8H13V1H8Z" fill="#9AA7B0" fill-opacity="0.8"/>
<path id="Fill 5" fill-rule="evenodd" clip-rule="evenodd" d="M1 16H16V9H1V16Z" fill="#F98B9E" fill-opacity="0.6"/>
<g id="&#226;&#140;&#152;/alphabet/C">
<path id="&#226;&#140;&#152;/alphabet/C_2" fill-rule="evenodd" clip-rule="evenodd" d="M2 12.501C2 11 2.931 10 4.256 10C5.20239 10 5.55 10.311 5.969 10.753L5.4267 11.4271C5.0767 11.0681 4.75 11 4.25 11C3.418 11 3 11.7379 3 12.487C3 13.2361 3.412 14 4.25 14C4.787 14 5.0517 13.8934 5.4267 13.5064L6 14.144C5.544 14.669 5.19733 15 4.225 15C2.949 15 2 14.002 2 12.501Z" fill="#231F20" fill-opacity="0.7"/>
</g>
<g id="&#226;&#140;&#152;/alphabet/S">
<path id="&#226;&#140;&#152;/alphabet/S_2" fill-rule="evenodd" clip-rule="evenodd" d="M7.97277 11.5015C7.97277 11.1331 8.284 11 8.845 11C8.853 11 10 11 10 11V10C10 10 8.894 10 8.86 10C7.778 10 7 10.4592 7 11.45C7 12.3145 7.41956 12.6905 8.47125 12.9161C9.24159 13.0813 9.49616 13.2286 9.49616 13.548C9.49616 13.8674 9.13843 14 8.47125 14C8.45525 14 7.3 14 7.3 14V15C7.3 15 8.46325 15 8.47125 15C10.5 15 10.5 14 10.5 13.548C10.5 12.9161 10.0203 12.4207 9.15869 12.1469C8.29712 11.873 7.97277 11.87 7.97277 11.5015Z" fill="#231F20" fill-opacity="0.7"/>
</g>
<g id="&#226;&#140;&#152;/alphabet/S_3">
<path id="&#226;&#140;&#152;/alphabet/S_4" fill-rule="evenodd" clip-rule="evenodd" d="M11.9728 11.5015C11.9728 11.1331 12.284 11 12.845 11C12.853 11 14 11 14 11V10C14 10 12.894 10 12.86 10C11.778 10 11 10.4592 11 11.45C11 12.3145 11.4196 12.6905 12.4713 12.9161C13.2416 13.0813 13.4962 13.2286 13.4962 13.548C13.4962 13.8674 13.1384 14 12.4713 14C12.4553 14 11.3 14 11.3 14V15C11.3 15 12.4633 15 12.4713 15C14.5 15 14.5 14 14.5 13.548C14.5 12.9161 14.0203 12.4207 13.1587 12.1469C12.2971 11.873 11.9728 11.87 11.9728 11.5015Z" fill="#231F20" fill-opacity="0.7"/>
</g>
</g>
</svg>

<svg xmlns="http://www.w3.org/2000/svg" width="16" height="16" fill="none" viewBox="0 0 16 16"><path fill="#9AA7B0" fill-opacity=".8" fill-rule="evenodd" d="M7 1 3 5h4z" clip-rule="evenodd"/><path fill="#9AA7B0" fill-opacity=".8" fill-rule="evenodd" d="M8 1v5H3v2h10V1z" clip-rule="evenodd"/><path fill="#F98B9E" fill-opacity=".6" fill-rule="evenodd" d="M1 16h15V9H1z" clip-rule="evenodd"/><path fill="#231F20" fill-opacity=".7" fill-rule="evenodd" d="M2 12.501C2 11 2.931 10 4.256 10c.946 0 1.294.311 1.713.753l-.542.674C5.077 11.068 4.75 11 4.25 11 3.418 11 3 11.738 3 12.487S3.412 14 4.25 14c.537 0 .802-.107 1.177-.494l.573.638c-.456.525-.803.856-1.775.856C2.949 15 2 14.002 2 12.501m5.973-.999c0-.369.311-.502.872-.502H10v-1H8.86C7.778 10 7 10.46 7 11.45c0 .865.42 1.24 1.471 1.466.77.165 1.025.313 1.025.632 0 .32-.358.452-1.025.452H7.3v1h1.171c2.029 0 2.029-1 2.029-1.452 0-.632-.48-1.127-1.341-1.401-.862-.274-1.186-.277-1.186-.646m4 .001c0-.369.311-.502.872-.502H14v-1h-1.14c-1.082 0-1.86.46-1.86 1.45 0 .865.42 1.24 1.471 1.466.77.165 1.025.313 1.025.632 0 .32-.358.452-1.025.452H11.3v1h1.171c2.029 0 2.029-1 2.029-1.452 0-.632-.48-1.127-1.341-1.401-.862-.274-1.186-.277-1.186-.646" clip-rule="evenodd"/></svg>
